src/lib/packages/icons/src/assets/filled/layout-web-6.svg

<svg width="24" height="24" viewBox="0 0 24 24" fill="none" xmlns="http://www.w3.org/2000/svg">
<path d="M6 4H10.95C11.116 4 11.25 4.13405 11.25 4.30005V19.7C11.25 19.866 11.116 20 10.95 20H6C4 20 3 19 3 17V7C3 5 4 4 6 4ZM18 4H13.05C12.884 4 12.75 4.13405 12.75 4.30005V19.7C12.75 19.866 12.884 20 13.05 20H18C20 20 21 19 21 17V7C21 5 20 4 18 4Z" fill="currentColor"/>
</svg>

<svg xmlns="http://www.w3.org/2000/svg" width="24" height="24" fill="none"><path fill="currentColor" d="M6 4h4.95a.3.3 0 0 1 .3.3v15.4a.3.3 0 0 1-.3.3H6c-2 0-3-1-3-3V7c0-2 1-3 3-3Zm12 0h-4.95a.3.3 0 0 0-.3.3v15.4a.3.3 0 0 0 .3.3H18c2 0 3-1 3-3V7c0-2-1-3-3-3Z"/></svg>
